svgs/light/file-video.svg

<svg xmlns="http://www.w3.org/2000/svg" viewBox="0 0 384 512"><!--! Font Awesome Pro 6.3.0 by @fontawesome - https://fontawesome.com License - https://fontawesome.com/license (Commercial License) Copyright 2023 Fonticons, Inc. --><path d="M379.1 146c-3.186-7.688-7.871-14.76-13.87-20.76l-106.5-106.5c-6-6.004-13.07-10.69-20.76-13.88C230.3 1.688 221.1 0 213.5 0H64C46.33 0 30.33 7.164 18.75 18.75S0 46.33 0 64l.0065 384c0 17.67 7.158 33.67 18.74 45.25S46.33 512 64.01 512H320c17.67 0 33.67-7.164 45.26-18.75S384 465.7 384 448V170.5C384 162 382.3 153.7 379.1 146zM224 34.08c2.238 .7813 4.404 1.742 6.443 2.938c2.039 1.199 3.949 2.633 5.676 4.359l106.5 106.5c1.727 1.727 3.16 3.637 4.355 5.676C348.2 155.6 349.1 157.8 349.9 160H240c-4.406 0-8.406-1.793-11.3-4.688C225.8 152.4 224 148.4 224 144V34.08zM352 448c0 8.82-3.588 16.82-9.383 22.62C336.8 476.4 328.8 480 320 480H64c-8.822 0-16.82-3.59-22.62-9.383C35.59 464.8 32 456.8 32 448V64c0-8.82 3.59-16.82 9.383-22.62C47.18 35.59 55.18 32 64 32h128v112c0 13.23 5.383 25.23 14.07 33.93S226.8 192 240 192H352V448zM230.6 265.4C224.8 259.6 216.8 256 208 256H96C87.16 256 79.16 259.6 73.37 265.4C67.58 271.2 64 279.2 64 288v96c0 8.836 3.582 16.84 9.373 22.62C79.16 412.4 87.16 416 96 416h112c8.836 0 16.84-3.582 22.63-9.375c5.023-5.023 7.902-11.87 8.705-19.32l59.61 19.87C300.6 407.7 302.3 408 304 408c3.312 0 6.594-1.031 9.359-3.016C317.5 401.1 320 397.1 320 392v-112c0-5.141-2.469-9.969-6.641-12.98C309.2 264 303.8 263.2 298.9 264.8L239.3 284.7C238.5 277.2 235.7 270.4 230.6 265.4zM208 384H96V288h112V384zM240 318.2L288 302.2v67.59l-48-15.99V318.2z"/></svg>

<svg xmlns="http://www.w3.org/2000/svg" viewBox="0 0 384 512"><!-- Font Awesome Pro 6.0.0-alpha2 by @fontawesome - https://fontawesome.com License - https://fontawesome.com/license (Commercial License) --><path d="M379.129 146.016C375.943 138.328 371.258 131.258 365.256 125.254L312.002 72L258.746 18.746C252.746 12.742 245.676 8.055 237.982 4.871C230.291 1.688 221.979 0 213.49 0H64C46.328 0 30.328 7.164 18.746 18.746S0 46.328 0 64V448C0 465.672 7.164 481.672 18.746 493.254S46.328 512 64 512H320C337.674 512 353.674 504.836 365.256 493.254S384 465.672 384 448V170.508C384 162.023 382.314 153.711 379.129 146.016ZM224 34.078C226.238 34.859 228.404 35.82 230.443 37.016C232.482 38.215 234.393 39.648 236.119 41.375L342.627 147.879C344.354 149.605 345.787 151.516 346.982 153.555C348.18 155.594 349.141 157.762 349.924 160H240C235.594 160 231.594 158.207 228.695 155.312C225.797 152.414 224 148.414 224 144V34.078ZM352 448C352 456.82 348.412 464.82 342.617 470.617C336.822 476.41 328.822 480 320 480H64C55.178 480 47.178 476.41 41.383 470.617C35.59 464.82 32 456.82 32 448V64C32 55.18 35.59 47.18 41.383 41.383C47.178 35.586 55.178 32 64 32H192V144C192 157.234 197.383 169.234 206.074 177.926S226.766 192 240 192H352V448ZM230.627 265.375C224.836 259.582 216.836 256 208 256H96C87.164 256 79.164 259.582 73.373 265.375C67.582 271.164 64 279.164 64 288V384C64 392.836 67.582 400.836 73.373 406.625C79.164 412.418 87.164 416 96 416H208C216.836 416 224.836 412.418 230.627 406.625C235.65 401.602 238.529 394.754 239.332 387.305L298.938 407.172C300.594 407.734 302.297 408 304 408C307.312 408 310.594 406.969 313.359 404.984C317.531 401.969 320 397.141 320 392V280C320 274.859 317.531 270.031 313.359 267.016C309.172 264 303.766 263.156 298.938 264.828L239.332 284.695C238.529 277.246 235.65 270.398 230.627 265.375ZM208 384H96V288H208V384ZM240 318.195L288 302.203V369.797L240 353.805V318.195Z"/></svg>
